Origami/16x16/apps/peruse.svg

<svg width="16" height="16" version="1" xmlns="http://www.w3.org/2000/svg">
 <path d="M 0.85742188 1 C 0.38264388 1 0 1.3345692 0 1.75 L 0 14.25 C 0 14.665431 0.38264388 15 0.85742188 15 L 15.142578 15 C 15.617356 15 16 14.665431 16 14.25 L 16 1.75 C 16 1.3345692 15.617356 1 15.142578 1 L 0.85742188 1 z" style="fill-rule:evenodd;fill:#bbc91b"/>
 <path d="m13.175604 2.9891253c-1.824396 0-5.175604 0-8.089452 1.29775-1.240547 0.552507-2.432528 1.9358195-1.824396 2.539125 0.608132 0.6033125 1.835113-0.2984443 3.648785-0.9327499 3.189459-1.1154721 7.753677-1.6720761 9.089459-1.8291801v-0.799216c-0.383194-0.141632-1.964957-0.275729-2.824396-0.275729z" style="fill:#6c5548"/>
 <path d="m8.462139 6.0000001c-2.133193 0-4.462139 2.9761236-4.462139 5.1434229 0 1.21918 2.737678 1.561821 4.800181 1.828497 2.116135 0.273606 4.199819-1.489702 4.199819-3.6569947 0-0.158528-0.01588-0.309902-0.04056-0.4574674v-0.00141c-0.0012-0.00704-0.0029-0.013622-0.0041-0.020608-4.9e-5 -2.737e-4 -0.0013-0.00112-0.0014-0.0014-0.300688-1.7027236-2.175512-2.6551044-4.005108-2.8011329-0.0018-1.463e-4 -0.0036-0.00119-0.0054-0.00133-0.160839-0.0126-0.322322-0.031535-0.481322-0.031535z" style="fill:#ffffff"/>
 <path d="m9.009766 6.0410159c-0.610699 0.3771335-1.008562 1.057715-1.009766 1.8242188-3.25e-4 1.1785436 0.895189 2.1347246 2 2.1347653 1.104811-4.07e-5 2.000325-0.9562217 2-2.1347653-6.1e-4 -0.1551554-0.02857-0.4745662-0.06055-0.7011719-0.766422-0.6463142-1.849557-1.0263789-2.929687-1.1230469z" style="fill:#583268"/>
</svg>

<svg xmlns="http://www.w3.org/2000/svg" width="16" height="16" version="1">
 <path style="fill:#bbc91b;fill-rule:evenodd" d="M 0.85742188 1 C 0.38264388 1 0 1.3345692 0 1.75 L 0 14.25 C 0 14.665431 0.38264388 15 0.85742188 15 L 15.142578 15 C 15.617356 15 16 14.665431 16 14.25 L 16 1.75 C 16 1.3345692 15.617356 1 15.142578 1 L 0.85742188 1 z"/>
 <path style="fill:#6c5548" d="m 13.175604,2.9891253 c -1.824396,0 -5.175604,0 -8.089452,1.29775 C 3.845605,4.8393823 2.653624,6.2226948 3.261756,6.8260003 3.869888,7.4293128 5.096869,6.527556 6.910541,5.8932504 10.1,4.7777783 14.664218,4.2211743 16,4.0640703 l 0,-0.799216 c -0.383194,-0.141632 -1.964957,-0.275729 -2.824396,-0.275729 z"/>
 <path style="fill:#ffffff" d="M 8.462139,6.0000001 C 6.328946,6.0000001 4,8.9761237 4,11.143423 4,12.362603 6.737678,12.705244 8.800181,12.97192 10.916316,13.245526 13,11.482218 13,9.3149253 c 0,-0.158528 -0.01588,-0.309902 -0.04056,-0.4574674 0,0 0,-0.00141 0,-0.00141 -0.0012,-0.00704 -0.0029,-0.013622 -0.0041,-0.020608 -4.9e-5,-2.737e-4 -0.0013,-0.00112 -0.0014,-0.0014 C 12.653252,7.1313163 10.778428,6.1789355 8.948832,6.032907 8.947032,6.0327607 8.945232,6.031717 8.943432,6.031577 8.782593,6.018977 8.62111,6.000042 8.46211,6.000042 Z"/>
 <path style="fill:#583268" d="M 9.009766,6.0410159 C 8.399067,6.4181494 8.001204,7.0987309 8,7.8652347 7.999675,9.0437783 8.895189,9.9999593 10,10 11.104811,9.9999593 12.000325,9.0437783 12,7.8652347 11.99939,7.7100793 11.97143,7.3906685 11.93945,7.1640628 11.173028,6.5177486 10.089893,6.1376839 9.009763,6.0410159 Z"/>
</svg>
